X:10
M:2/4
L:1/8
K:G
|:B(ee)d|^cA"tr"AG|Fd"tr"d=c|BG"tr"GF|E(c"tr"c)B|A(FF)G|F2 "tr"G2|A/G/F/E/ D/C/B,/A,/|

